!!!!SEGMENT: pl-stab--3b--001-004_rodowski-aleksander--modlitwa-in-b-jezeli-sprawiedliwie.krn
!!!cenid: 18xx:3425
!!!COM: Rodowski, Aleksander
!!!COM-rismID:
!!!CDT: <1790->1810
!!!CNT: Polish
!!!OPR: Modlitwa in B
!!!OTL: Jeżeli sprawiedliwie
!!!OMV: 004
!!!PDT: 1806
!!!AGN:
!!!SMS-siglum: PL-STAb
!!!SMS-shelfmark: 3b
!!!SMS-shelfwork: 001-004 M
!!!SMS-variant: Cantus: skany 10-15
!!!SMS-altvar: Cantus: skany 16-18
!!!NIFC-rismSourceID: 301050648
!!!NIFC-islandoraID: pl-stab:961
!!!URL-pdf-islandora: https://repozytorium.nifc.pl/islandora/object/pl-stab%3A961/datastream/PDF/view
!!!URL-scan: https://polish.musicsources.pl/pl/lokalizacje/galeria/rekopisy/4501 @EN{Scan on Polish Music Herritage in Open Access Website} @PL{Skany w portalu Dziedzictwo Muzyki Polskiej w otwartym dostępie}
!!!ONB-nifc: UWAGA: części Modlitwy: 1. Przed oczy twoie (Adagio), 2. Umysł utrapieniem (Moderatto), 3. Życie w uciskach (Adagio), 4. Jeżeli sprawiedliwie (Moderato), 5. Wyznawamy (Adagio), 6. Kiedy nas karzesz (Adagio), 7. Oto nas masz (Andante), 8. Racz nam tedy dać (Allegro)
!!!OMD: Moderato
!!!AIN: 1 empty 1 organ 1 tenor 2 violn 1 vox
!!!key:
**kern	**kern	**kern	**kern	**kern	**text	**kern	**text	**kern	**text
*part6	*part6	*part5	*part4	*part3	*part3	*part2	*part2	*part1	*part1
*staff6	*staff6	*staff5	*staff4	*staff3	*staff3	*staff2	*staff2	*staff1	*staff1
*Iorgan	*Iorgan	*Ivioln	*Ivioln	*Iempty	*	*Itenor	*	*Ivox	*
*I"Organo	*I"Organo	*I"Violino Secundo	*I"Violino Primo	*I"Baſso	*	*I"Tenor	*	*I"Canto.	*
*I'Org	*	*I'Vn II	*I'Vn I	*I'B.	*	*I'T	*	*I'C.	*
*ICklav	*ICklav	*ICstr	*ICstr	*ICvox	*	*ICvox	*	*ICvox	*
*clefF4	*clefG2	*clefG2	*clefG2	*clefF4	*	*clefC4	*	*clefC1	*
*k[b-]	*k[b-]	*k[b-]	*k[b-]	*k[b-]	*	*k[b-]	*	*k[b-]	*
*d:	*d:	*d:	*d:	*d:	*	*d:	*	*d:	*
*M2/4	*M2/4	*M2/4	*M2/4	*M2/4	*	*M2/4	*	*M2/4	*
=1	=1	=1	=1	=1	=1	=1	=1	=1	=1
!LO:TX:t=P:problem=mixed beam	!	!	!	!	!	!	!	!LO:SIC:o:s:v=dwa bemole b- B-	!
!	!	!	!LO:TX:b:t=Jeżeli sprawiedliwie	!	!	!	!	!LO:TX:a:t=63.	!
16FF/LL	2f/	2A/	2f/	0r	.	0r	.	0r	.
16F\	.	.	.	.	.	.	.	.	.
16F\	.	.	.	.	.	.	.	.	.
16F\JJ	.	.	.	.	.	.	.	.	.
*tremolo	*	*	*	*	*	*	*	*	*
16F\LL	.	.	.	.	.	.	.	.	.
16F\	.	.	.	.	.	.	.	.	.
16F\	.	.	.	.	.	.	.	.	.
16F\JJ	.	.	.	.	.	.	.	.	.
=2	=2	=2	=2	=2	=2	=2	=2	=2	=2
*rep	*	*	*	*	*	*	*	*	*
16F\LL	2a/ 2f/	2f/	2a/	.	.	.	.	.	.
16F\	.	.	.	.	.	.	.	.	.
16F\	.	.	.	.	.	.	.	.	.
16F\JJ	.	.	.	.	.	.	.	.	.
*Xrep	*	*	*	*	*	*	*	*	*
*rep	*	*	*	*	*	*	*	*	*
16F\LL	.	.	.	.	.	.	.	.	.
16F\	.	.	.	.	.	.	.	.	.
16F\	.	.	.	.	.	.	.	.	.
16F\JJ	.	.	.	.	.	.	.	.	.
*Xrep	*	*	*	*	*	*	*	*	*
=3	=3	=3	=3	=3	=3	=3	=3	=3	=3
*rep	*	*	*	*	*	*	*	*	*
16F\LL	8cc/L 8a/	8a/L	8cc/L	.	.	.	.	.	.
16F\	.	.	.	.	.	.	.	.	.
16F\	8cc/ 8a/	8a/	8cc/	.	.	.	.	.	.
16F\JJ	.	.	.	.	.	.	.	.	.
*Xrep	*	*	*	*	*	*	*	*	*
*rep	*	*	*	*	*	*	*	*	*
16F\LL	8cc/ 8a/	8a/	8cc/	.	.	.	.	.	.
16F\	.	.	.	.	.	.	.	.	.
16F\	8cc#X/J 8a/	8a/J	8cc#X/J	.	.	.	.	.	.
16F\JJ	.	.	.	.	.	.	.	.	.
*Xrep	*	*	*	*	*	*	*	*	*
=4	=4	=4	=4	=4	=4	=4	=4	=4	=4
*rep	*	*2\right	*2\right	*	*	*	*	*	*
!	!	!	!	!	!	!	!	!	!
16F\LL	2dd/ 2b-/	2b-\	2dd\	.	.	.	.	.	.
16F\	.	.	.	.	.	.	.	.	.
16F\	.	.	.	.	.	.	.	.	.
16F\JJ	.	.	.	.	.	.	.	.	.
*Xrep	*	*	*	*	*	*	*	*	*
*rep	*	*	*	*	*	*	*	*	*
16F\LL	.	.	.	.	.	.	.	.	.
16F\	.	.	.	.	.	.	.	.	.
16F\	.	.	.	.	.	.	.	.	.
16F\JJ	.	.	.	.	.	.	.	.	.
*Xrep	*	*	*	*	*	*	*	*	*
=5	=5	=5	=5	=5	=5	=5	=5	=5	=5
*rep	*	*	*	*	*	*	*	*	*
16F\LL	2ee/ 2g/	2g/	2een\	0r	.	0r	.	0r	.
16F\	.	.	.	.	.	.	.	.	.
16F\	.	.	.	.	.	.	.	.	.
16F\JJ	.	.	.	.	.	.	.	.	.
*Xrep	*	*	*	*	*	*	*	*	*
*rep	*	*	*	*	*	*	*	*	*
16F\LL	.	.	.	.	.	.	.	.	.
16F\	.	.	.	.	.	.	.	.	.
16F\	.	.	.	.	.	.	.	.	.
16F\JJ	.	.	.	.	.	.	.	.	.
*Xrep	*	*	*	*	*	*	*	*	*
=6	=6	=6	=6	=6	=6	=6	=6	=6	=6
*rep	*	*	*	*	*	*	*	*	*
16F\LL	4.ff\ 4.a\	4.a/	4.ff\	.	.	.	.	.	.
16F\	.	.	.	.	.	.	.	.	.
16F\	.	.	.	.	.	.	.	.	.
16F\JJ	.	.	.	.	.	.	.	.	.
*Xrep	*	*	*	*	*	*	*	*	*
*rep	*	*	*	*	*	*	*	*	*
16F\LL	.	.	.	.	.	.	.	.	.
16F\	.	.	.	.	.	.	.	.	.
16F\	8dd\ 8b-\	8b-/	8dd\	.	.	.	.	.	.
16F\JJ	.	.	.	.	.	.	.	.	.
*Xrep	*	*	*	*	*	*	*	*	*
=7	=7	=7	=7	=7	=7	=7	=7	=7	=7
*rep	*	*	*	*	*	*	*	*	*
16F\LL	8dd\L 8b-\	8a/L	8dd\L	.	.	.	.	.	.
16F\	.	.	.	.	.	.	.	.	.
16F\	8cc\ 8a\	8a/	8cc\	.	.	.	.	.	.
16F\JJ	.	.	.	.	.	.	.	.	.
*Xrep	*	*	*	*	*	*	*	*	*
*rep	*	*	*	*	*	*	*	*	*
16F\LL	8cc\ 8a\	8a/	8cc\	.	.	.	.	.	.
16F\	.	.	.	.	.	.	.	.	.
16F\	8cc#X\J 8a\	8a/J	8cc#X\J	.	.	.	.	.	.
16F\JJ	.	.	.	.	.	.	.	.	.
*Xrep	*	*	*	*	*	*	*	*	*
=8	=8	=8	=8	=8	=8	=8	=8	=8	=8
*rep	*	*	*	*	*	*	*	*	*
16F\LL	4.dd\ 4.b-\	4.b-\	4.dd\	.	.	.	.	.	.
16F\	.	.	.	.	.	.	.	.	.
16F\	.	.	.	.	.	.	.	.	.
16F\JJ	.	.	.	.	.	.	.	.	.
*Xrep	*	*	*	*	*	*	*	*	*
*rep	*	*	*	*	*	*	*	*	*
16F\LL	.	.	.	.	.	.	.	.	.
16F\	.	.	.	.	.	.	.	.	.
16F\	8b-\ 8g\	8g\	8b-\	.	.	.	.	.	.
16F\JJ	.	.	.	.	.	.	.	.	.
*Xrep	*	*	*	*	*	*	*	*	*
!	!	!LO:LB:g=original	!	!	!	!	!	!	!
=9	=9	=9	=9	=9	=9	=9	=9	=9	=9
*rep	*	*	*	*	*	*	*	*	*
16F\LL	8b-/L 8g/	8g/L	8b-/L	0r	.	0r	.	0r	.
16F\	.	.	.	.	.	.	.	.	.
16F\	8a/ 8c/	8f/	8a/	.	.	.	.	.	.
16F\JJ	.	.	.	.	.	.	.	.	.
*Xrep	*	*	*	*	*	*	*	*	*
*rep	*	*	*	*	*	*	*	*	*
16F\LL	8a/ 8c/	8f/	8a/	.	.	.	.	.	.
16F\	.	.	.	.	.	.	.	.	.
16F\	8a/J 8c/	8c/J	8a/J	.	.	.	.	.	.
16F\JJ	.	.	.	.	.	.	.	.	.
*Xrep	*	*	*	*	*	*	*	*	*
=10	=10	=10	=10	=10	=10	=10	=10	=10	=10
*rep	*	*	*	*	*	*	*	*	*
16F\LL	4.b-/ 4.d/	4.d/	4.b-/	.	.	.	.	.	.
16F\	.	.	.	.	.	.	.	.	.
16F\	.	.	.	.	.	.	.	.	.
16F\JJ	.	.	.	.	.	.	.	.	.
*Xrep	*	*	*	*	*	*	*	*	*
*rep	*	*	*	*	*	*	*	*	*
16F\LL	.	.	.	.	.	.	.	.	.
16F\	.	.	.	.	.	.	.	.	.
16F\	8g/ 8B-/	8B-/	8g/	.	.	.	.	.	.
16F\JJ	.	.	.	.	.	.	.	.	.
*Xrep	*	*	*	*	*	*	*	*	*
*Xtremolo	*	*	*	*	*	*	*	*	*
!LO:LB:g=original	!	!	!	!	!	!	!	!	!
=11	=11	=11	=11	=11	=11	=11	=11	=11	=11
!	!LO:TX:t=P:problem=mixed beam	!	!LO:TX:t=P:problem=mixed beam	!	!	!	!	!	!
4FF/	8f/L 8A/	4A/	8f/L	.	.	.	.	.	.
.	8ff\	.	8ff\	.	.	.	.	.	.
4r	8ff\	4r	8ff\	.	.	.	.	.	.
.	8ff\J	.	8ff\J	.	.	.	.	.	.
=12	=12	=12	=12	=12	=12	=12	=12	=12	=12
*	*	*tremolo	*	*	*	*	*	*	*
16B-\LL 16G\	8.dd\L	16b-/LL	8.dd\L	.	.	.	.	.	.
16C\	.	16b-/	.	.	.	.	.	.	.
16B-\ 16G\	.	16b-/	.	.	.	.	.	.	.
16C\JJ	16gg\Jk	16b-/	16gg\Jk	.	.	.	.	.	.
*rep	*	*	*	*	*	*	*	*	*
16B-\LL 16G\	16ff\LL	16b-/	16ff\LL	.	.	.	.	.	.
16C\	16ee\	16b-/	16ee\	.	.	.	.	.	.
16B-\ 16G\	16dd\	16b-/	16dd\	.	.	.	.	.	.
16C\JJ	16cc\JJ	16b-/JJ	16cc\JJ	.	.	.	.	.	.
*Xrep	*	*	*	*	*	*	*	*	*
!	!	!	!LO:LB:g=original	!	!	!	!	!	!
=13	=13	=13	=13	=13	=13	=13	=13	=13	=13
16A\LL 16F\	8.ff\L	16a/LL	8.ff\L	0r	.	0r	.	0r	.
16C\	.	16a/	.	.	.	.	.	.	.
16A\ 16F\	.	16a/	.	.	.	.	.	.	.
16C\JJ	16aa\Jk	16a/	16aa\Jk	.	.	.	.	.	.
*rep	*	*	*	*	*	*	*	*	*
16A\LL 16F\	16gg\LL	16a/	16gg\LL	.	.	.	.	.	.
16C\	16ff\	16a/	16ff\	.	.	.	.	.	.
16A\ 16F\	16ee\	16a/	16ee\	.	.	.	.	.	.
16C\JJ	16ff\JJ	16a/JJ	16ff\JJ	.	.	.	.	.	.
*Xrep	*	*	*	*	*	*	*	*	*
=14	=14	=14	=14	=14	=14	=14	=14	=14	=14
16B-\LL 16G\	16ee\LL	16b-/LL	16ee\LL	.	.	.	.	.	.
16C\	16ff\	16b-/	16ff\	.	.	.	.	.	.
16B-\ 16G\	16ff#X\	16b-/	16ff#X\	.	.	.	.	.	.
16C\JJ	16gg\JJ	16b-/	16gg\JJ	.	.	.	.	.	.
*rep	*	*	*	*	*	*	*	*	*
16B-\LL 16G\	16ffn\LL	16b-/	16ffn\LL	.	.	.	.	.	.
16C\	16ee\	16b-/	16ee\	.	.	.	.	.	.
16B-\ 16G\	16dd\	16b-/	16dd\	.	.	.	.	.	.
16C\JJ	16cc\JJ	16b-/JJ	16cc\JJ	.	.	.	.	.	.
*Xrep	*	*	*	*	*	*	*	*	*
=15	=15	=15	=15	=15	=15	=15	=15	=15	=15
16A\LL 16F\	8.ff\L	16a/LL	8.ff\L	.	.	.	.	.	.
16C\	.	16a/	.	.	.	.	.	.	.
16A\ 16F\	.	16a/	.	.	.	.	.	.	.
16C\JJ	16aa\Jk	16a/	16aa\Jk	.	.	.	.	.	.
*rep	*	*	*	*	*	*	*	*	*
16A\LL 16F\	16gg\LL	16a/	16gg\LL	.	.	.	.	.	.
16C\	16ff\	16a/	16ff\	.	.	.	.	.	.
16A\ 16F\	16ee\	16a/	16ee\	.	.	.	.	.	.
16C\JJ	16ff\JJ	16a/JJ	16ff\JJ	.	.	.	.	.	.
*Xrep	*	*Xtremolo	*	*	*	*	*	*	*
=16	=16	=16	=16	=16	=16	=16	=16	=16	=16
16B-\LL	16dd\LL	16b-/LL	16dd\LL	.	.	.	.	.	.
16B-\	16ee\	16g/	16ee\	.	.	.	.	.	.
16B-\	16ff\	16a/	16ff\	.	.	.	.	.	.
16B-\JJ	16gg\JJ	16b-/JJ	16gg\JJ	.	.	.	.	.	.
!LO:TX:t=P:problem=mixed beam	!	!	!	!	!	!	!	!	!
16c\LL	8ff\L 8a\	8a/L	8ff\L	.	.	.	.	.	.
16c\	.	.	.	.	.	.	.	.	.
16C/	8ee\J 8g\	8g/J	8ee\J	.	.	.	.	.	.
16C/JJ	.	.	.	.	.	.	.	.	.
=17	=17	=17	=17	=17	=17	=17	=17	=17	=17
4F\	8ff\L	8a/	8ff\	0r	.	0r	.	0r	.
.	8cc\	8r	8r	.	.	.	.	.	.
4r	8cc\	4r	4r	.	.	.	.	.	.
.	8cc\J	.	.	.	.	.	.	.	.
!LO:PB:g=original	!	!	!	!	!	!	!	!	!
=18	=18	=18	=18	=18	=18	=18	=18	=18	=18
!	!LO:TX:t=P:problem=mixed beam	!	!	!	!	!	!	!	!
8r	8cc\L	8r	8r	.	.	.	.	.	.
8C\L	8e/ 8B-/ 8G/	8a/L	8cc\L	.	.	.	.	.	.
8C\	8e/ 8B-/ 8G/	8b-/	8dd\	.	.	.	.	.	.
8C\J	8e/J 8B-/ 8G/	8g/J	8ee\J	.	.	.	.	.	.
=19	=19	=19	=19	=19	=19	=19	=19	=19	=19
!	!LO:TX:t=P:problem=mixed beam	!	!	!	!	!	!	!	!
4F\	8f/L 8c/ 8A/	8a/	8ff\	.	.	.	.	.	.
.	8cc\	8r	8r	.	.	.	.	.	.
4r	8cc\	4r	4r	.	.	.	.	.	.
.	8cc\J	.	.	.	.	.	.	.	.
=20	=20	=20	=20	=20	=20	=20	=20	=20	=20
!	!LO:TX:t=P:problem=mixed beam	!	!	!	!	!	!	!	!
8r	8cc\L	8r	8r	.	.	.	.	.	.
8C\L	8e/ 8B-/ 8G/	8a/L	8cc\L	.	.	.	.	.	.
8C\	8e/ 8B-/ 8G/	8b-/	8dd\	.	.	.	.	.	.
8C\J	8e/J 8B-/ 8G/	8g/J	8ee\J	.	.	.	.	.	.
=21	=21	=21	=21	=21	=21	=21	=21	=21	=21
4F\	4f/ 4c/ 4A/	4a/	4ff/ 4a/	0r	.	1r	.	0r	.
4F\	4f/ 4c/ 4A/	4a/ 4f/	4ff/ 4a/	.	.	.	.	.	.
=22	=22	=22	=22	=22	=22	=22	=22	=22	=22
4F\	4f/ 4c/ 4A/	4a/ 4f/	4ff/ 4a/	.	.	.	.	.	.
4r	4r	4r	4r	.	.	.	.	.	.
!	!	!	!LO:LB:g=original	!	!	!	!	!	!
=23	=23	=23	=23	=23	=23	=23	=23	=23	=23
!LO:TX:t=P:problem=mixed beam	!	!LO:TX:a:t=17	!LO:TX:a:t=17	!	!	!	!	!	!
8FF/L	4f/	0r	0r	.	.	4F/	Je-	.	.
8F\	.	.	.	.	.	.	.	.	.
8F\	8g/L 8e/	.	.	.	.	8G/	-ze-	.	.
8F\J	8a/J 8f/	.	.	.	.	8A/	-li	.	.
=24	=24	=24	=24	=24	=24	=24	=24	=24	=24
*2\right	*	*	*	*	*	*	*	*	*
*tremolo	*	*	*	*	*	*	*	*	*
8F\L	8b-\L 8g\	.	.	.	.	8B-\	na-	.	.
8F\	8cc\ 8a\	.	.	.	.	8c\	-wro-	.	.
8F\	8dd\ 8b-\	.	.	.	.	8d\	-ce-	.	.
8F\J	8ee\J 8g\	.	.	.	.	8e\	-nia	.	.
=25	=25	=25	=25	=25	=25	=25	=25	=25	=25
8F\L	4ff\ 4a\	.	.	0r	.	4f\	łas-	0r	.
8F\	.	.	.	.	.	.	.	.	.
8F\	8ee\L 8cc\	.	.	.	.	16e\LL	-ka-	.	.
.	.	.	.	.	.	16f\JJ	.	.	.
8F\J	8dd\J 8b-\	.	.	.	.	16e\LL	-wie	.	.
.	.	.	.	.	.	16d\JJ	.	.	.
=26	=26	=26	=26	=26	=26	=26	=26	=26	=26
8F\L	8dd\L 8b-\	.	.	.	.	8d\	cze-	.	.
8F\	8cc\ 8a\	.	.	.	.	8c\	-kasz	.	.
8F\	8b-\ 8g#X\	.	.	.	.	4r	.	.	.
8F\J	8cc\J 8a\	.	.	.	.	.	.	.	.
=27	=27	=27	=27	=27	=27	=27	=27	=27	=27
8F\L	4dd\ 4b-\	0r	0r	.	.	4d\	łas-	.	.
8F\	.	.	.	.	.	.	.	.	.
8F\	8cc\L 8a\	.	.	.	.	16c\LL	-ka-	.	.
.	.	.	.	.	.	16d\JJ	.	.	.
8F\J	8b-\J 8g\	.	.	.	.	16c\LL	-wie	.	.
.	.	.	.	.	.	16B-\JJ	.	.	.
!LO:LB:g=original	!	!	!	!	!	!	!	!	!
=28	=28	=28	=28	=28	=28	=28	=28	=28	=28
.	.	.	.	.	.	8qqc/	.	.	.
8F\L	8b-\L 8g\	.	.	.	.	8B-\	cze-	.	.
8F\	8a\ 8f\	.	.	.	.	8A\	-kasz	.	.
8F\	8g#X\ 8e\	.	.	.	.	4r	.	.	.
8F\J	8a\J 8f\	.	.	.	.	.	.	.	.
*Xtremolo	*	*	*	*	*	*	*	*	*
=29	=29	=29	=29	=29	=29	=29	=29	=29	=29
4C/	8e/L	.	.	0r	.	8G\	My	0r	.
.	16e/L	.	.	.	.	16G\	sie	.	.
.	16e/JJ	.	.	.	.	16c\	nie	.	.
!	!	!	!	!	!	!LO:LB:g=original	!	!	!
4GG/	8d/L	.	.	.	.	8Bn\	po-	.	.
.	16d/L	.	.	.	.	16B\	-pra-	.	.
.	16f/JJ	.	.	.	.	16d\	-wu-	.	.
=30	=30	=30	=30	=30	=30	=30	=30	=30	=30
.	.	.	.	.	.	8qqe/	.	.	.
4C/	8f/L	.	.	.	.	8d\	-ie-	.	.
.	8e/	.	.	.	.	8c\	-my	.	.
4r	8bn/ 8d/	.	.	.	.	4r	.	.	.
.	8cc/J 8e/	.	.	.	.	.	.	.	.
=31	=31	=31	=31	=31	=31	=31	=31	=31	=31
4C/	8e/L	0r	0r	.	.	8G/	My	.	.
.	16g/L	.	.	.	.	16c\	sie	.	.
.	16cc/JJ	.	.	.	.	16e\	nie	.	.
4GG/	8bn\L	.	.	.	.	8d\	po-	.	.
.	16b\L	.	.	.	.	16d\	-pra-	.	.
.	16dd\JJ	.	.	.	.	16f\	-wu-	.	.
=32	=32	=32	=32	=32	=32	=32	=32	=32	=32
.	.	.	.	.	.	8qqg/	.	.	.
4C/	8dd\L	.	.	.	.	8f\	-ie-	.	.
.	8cc\	.	.	.	.	8e\	-my	.	.
4r	8ff\ 8dd\	.	.	.	.	4r	.	.	.
.	8ee\J 8cc\	.	.	.	.	.	.	.	.
=33	=33	=33	=33	=33	=33	=33	=33	=33	=33
*	*	*	*	*	*	*	*ij	*	*
!LO:TX:t=P:problem=mixed beam	!	!	!	!	!	!	!	!	!
8FF/L	4a/	.	.	0r	.	4A\	my	0r	.
8F\	.	.	.	.	.	.	.	.	.
8F\	8a/L	.	.	.	.	8A\	sie	.	.
8F\J	8a/J	.	.	.	.	8f\	nie	.	.
=34	=34	=34	=34	=34	=34	=34	=34	=34	=34
*tremolo	*	*	*	*	*	*	*	*	*
8G\L	8g/L	.	.	.	.	8e\L	po-	.	.
8G\	8f/	.	.	.	.	8d\J	.	.	.
8G\	8e/	.	.	.	.	8c\	-pra-	.	.
8G\J	8d/J	.	.	.	.	8B-\	-wu-	.	.
*Xtremolo	*	*	*	*	*	*	*	*	*
=35	=35	=35	=35	=35	=35	=35	=35	=35	=35
8A\L	4f/	0r	0r	.	.	4d\	-ie-	.	.
8A\	.	.	.	.	.	.	.	.	.
8A\	4e/	.	.	.	.	4c\	-mu	.	.
*	*	*	*	*	*	*	*Xij	*	*
8G\J	.	.	.	.	.	.	.	.	.
=36	=36	=36	=36	=36	=36	=36	=36	=36	=36
*tremolo	*	*	*	*	*	*	*	*	*
8F\L	4f/	.	.	.	.	4A\	My	.	.
8F\	.	.	.	.	.	.	.	.	.
8F\	8f/L	.	.	.	.	8A\	sie	.	.
8F\J	8f/J	.	.	.	.	8a\	nie	.	.
!	!	!	!	!	!	!LO:LB:g=original	!	!	!
=37	=37	=37	=37	=37	=37	=37	=37	=37	=37
8F\L	8e/L	.	.	0r	.	8g\L	po-	0r	.
8F\	8d/	.	.	.	.	8f\J	.	.	.
8F\	8g/	.	.	.	.	8e\	-pra-	.	.
8F\J	8f/J	.	.	.	.	8d\	-wu-	.	.
!LO:LB:g=original	!	!	!	!	!	!	!	!	!
=38	=38	=38	=38	=38	=38	=38	=38	=38	=38
*	*tremolo	*	*	*	*	*2\right	*	*	*
!	!	!	!	!	!	!	!	!	!
8G\L	8g/L 8e/	.	.	.	.	2cT\	-ie-	.	.
8G\	8g/ 8e/	.	.	.	.	.	.	.	.
8G\	8g/ 8e/	.	.	.	.	.	.	.	.
8G\J	8g/J 8e/	.	.	.	.	.	.	.	.
=39	=39	=39	=39	=39	=39	=39	=39	=39	=39
8GG/L	8g/L 8f/ 8d/	2r	2r	.	.	2B-T\	.	.	.
8GG/	8g/ 8f/ 8d/	.	.	.	.	.	.	.	.
8GG/	8g/ 8f/ 8d/	.	.	.	.	.	.	.	.
8GG/J	8g/J 8f/ 8d/	.	.	.	.	.	.	.	.
*Xtremolo	*Xtremolo	*	*	*	*	*	*	*	*
!	!	!LO:LB:g=original	!	!	!	!	!	!	!
=40	=40	=40	=40	=40	=40	=40	=40	=40	=40
.	.	.	.	.	.	16qqA/LL	.	.	.
!	!LO:TX:t=P:problem=mixed beam	!	!	!	!	!	!	!	!
.	.	.	.	.	.	16qqB-/JJ	.	.	.
4C/	8g/L 8e/ 8c/	4e/	4cc/	.	.	8c\	-my	.	.
.	16ccc\L	.	.	.	.	8r	.	.	.
.	16aa/JJ	.	.	.	.	.	.	.	.
4r	8gg\L	8e/L	8c/L	.	.	4r	.	.	.
.	8gg\J	8e/J	8cc/J	.	.	.	.	.	.
=41	=41	=41	=41	=41	=41	=41	=41	=41	=41
!	!	!	!	!	!	!LO:TX:a:t=23	!	!	!
8d\L 8B-\	8gg\L	8d/L	8bn\L	0r	.	0r	.	0r	.
8e\ 8c\	8gg\	8e/	8cc\	.	.	.	.	.	.
8f\ 8d\	8gg\	8f/	8dd\	.	.	.	.	.	.
8d\J 8B-\	8gg\J	8d/J	8b\J	.	.	.	.	.	.
=42	=42	=42	=42	=42	=42	=42	=42	=42	=42
4e\ 4c\ 4A\	8gg\L	4e/	4cc/	.	.	.	.	.	.
.	16ccc\L	.	.	.	.	.	.	.	.
.	16aa\JJ	.	.	.	.	.	.	.	.
4r	8gg\L	8e/L	8c/L	.	.	.	.	.	.
.	8gg\J	8e/J	8cc/J	.	.	.	.	.	.
=43	=43	=43	=43	=43	=43	=43	=43	=43	=43
8d\L 8B-\	8gg\L	8d/L	8bn\L	.	.	.	.	.	.
8e\ 8c\	8gg\	8e/	8cc\	.	.	.	.	.	.
8f\ 8d\	8gg\	8f/	8dd\	.	.	.	.	.	.
8d\J 8B-\	8gg\J	8d/J	8b\J	.	.	.	.	.	.
=44	=44	=44	=44	=44	=44	=44	=44	=44	=44
4e\ 4c\	8gg\L	8e/L	8cc/L	.	.	.	.	.	.
.	16ccc\L	8e/	8g/	.	.	.	.	.	.
.	16gg\JJ	.	.	.	.	.	.	.	.
8d\L	8aa\L	8f/	8a/	.	.	.	.	.	.
8B-\J	16ff\L	8d/J	8f/J	.	.	.	.	.	.
.	16dd\JJ	.	.	.	.	.	.	.	.
=45	=45	=45	=45	=45	=45	=45	=45	=45	=45
8c\L	8gg\L	8e/L	8g/L	0r	.	0r	.	0r	.
8E\	16ee\L	8c/	8e/	.	.	.	.	.	.
.	16cc\JJ	.	.	.	.	.	.	.	.
8F\	8ff\L	8d/	8f/	.	.	.	.	.	.
8G\J	16dd\L	8Bn/J	8d/J	.	.	.	.	.	.
.	16b-\JJ	.	.	.	.	.	.	.	.
=46	=46	=46	=46	=46	=46	=46	=46	=46	=46
4C/	8cc\L	8c/L	8e/L	.	.	.	.	.	.
.	16ccc\L	8e/	8g/	.	.	.	.	.	.
.	16gg\JJ	.	.	.	.	.	.	.	.
8d\L	16aa\LL	8f/	8a/	.	.	.	.	.	.
.	16aa\	.	.	.	.	.	.	.	.
8B-\J	16ff\	8d/J	8f/J	.	.	.	.	.	.
.	16dd\JJ	.	.	.	.	.	.	.	.
!LO:LB:g=original	!	!	!	!	!	!	!	!	!
=47	=47	=47	=47	=47	=47	=47	=47	=47	=47
8c\L	16gg\LL	8e/L	8g/L	.	.	.	.	.	.
.	16gg\	.	.	.	.	.	.	.	.
8E\	16ee\	8c/	8e/	.	.	.	.	.	.
.	16cc\JJ	.	.	.	.	.	.	.	.
8F\	16ff\LL	8d/	8f/	.	.	.	.	.	.
.	16ff\	.	.	.	.	.	.	.	.
8G\J	16dd\	8Bn/J	8d/J	.	.	.	.	.	.
.	16b-\JJ	.	.	.	.	.	.	.	.
=48	=48	=48	=48	=48	=48	=48	=48	=48	=48
4C/	8cc\L	8c/	8e/	.	.	.	.	.	.
.	8cc\	8r	8r	.	.	.	.	.	.
4r	8ee\	4r	4r	.	.	.	.	.	.
.	8gg\J	.	.	.	.	.	.	.	.
=49	=49	=49	=49	=49	=49	=49	=49	=49	=49
8r	8gg\L	8r	8r	0r	.	0r	.	0r	.
8G\L 8GG\	8b-\ 8g\ 8f\ 8d\	8c/L	8e/L	.	.	.	.	.	.
8G\ 8GG\	8b-\ 8g\ 8f\ 8d\	8d/	8f/	.	.	.	.	.	.
8G\J 8GG\	8b-\J 8g\ 8f\ 8d\	8Bn/J	8d/J	.	.	.	.	.	.
=50	=50	=50	=50	=50	=50	=50	=50	=50	=50
!	!LO:TX:t=P:problem=mixed beam	!	!	!	!	!	!	!	!
4C/	8cc/L 8g/ 8e/	8c/	8e/	.	.	.	.	.	.
.	8gg\	8r	8r	.	.	.	.	.	.
4r	8gg\	4r	4r	.	.	.	.	.	.
.	8gg\J	.	.	.	.	.	.	.	.
!	!	!	!LO:LB:g=original	!	!	!	!	!	!
=51	=51	=51	=51	=51	=51	=51	=51	=51	=51
8r	8gg\L	8r	8r	.	.	.	.	.	.
8G\L 8GG\	8b-\ 8g\ 8f\ 8d\	8c/L	8e/L	.	.	.	.	.	.
8G\ 8GG\	8b-\ 8g\ 8f\ 8d\	8d/	8f/	.	.	.	.	.	.
8G\J 8GG\	8b-\J 8g\ 8f\ 8d\	8Bn/J	8d/J	.	.	.	.	.	.
=52	=52	=52	=52	=52	=52	=52	=52	=52	=52
!LO:TX:t=P:problem=mixed beam	!	!	!	!	!	!	!	!	!
8C/L	4cc\ 4g\ 4e\	4c/	4e/	.	.	.	.	.	.
8c\	.	.	.	.	.	.	.	.	.
8G\	4cc\ 4g\ 4e\	4e/ 4G/	4cc/ 4e/ 4G/	.	.	.	.	.	.
8E\J	.	.	.	.	.	.	.	.	.
!	!	!LO:LB:g=original	!	!	!	!	!	!	!
=53	=53	=53	=53	=53	=53	=53	=53	=53	=53
!	!	!	!	!LO:TX:a:t=Solo	!	!	!	!	!
4C/	4cc\ 4g\ 4e\	4e/ 4G/	4cc/ 4e/ 4G/	2r	.	0r	.	0r	.
4r	4r	4r	4r	.	.	.	.	.	.
=54	=54	=54	=54	=54	=54	=54	=54	=54	=54
!LO:TX:t=P:problem=mixed beam	!	!LO:TX:a:t=47	!	!	!	!	!	!	!
8CC/L	4c/	0r	0r	4C/	Je-	.	.	.	.
8C\	.	.	.	.	.	.	.	.	.
8C\	8d/L 8B-/	.	.	8D/	-ze-	.	.	.	.
8C\J	8e/J 8c/	.	.	8E/	-li	.	.	.	.
=55	=55	=55	=55	=55	=55	=55	=55	=55	=55
*tremolo	*	*	*	*	*	*	*	*	*
8C/L	8f/L 8d/	.	.	8F\	na-	.	.	.	.
8C/	8g/ 8e/	.	.	8G\	-wro-	.	.	.	.
8C/	8a/ 8f/	.	.	8A\	-ce-	.	.	.	.
8C/J	8b-/J 8d/	.	.	8Bn\	-nia	.	.	.	.
=56	=56	=56	=56	=56	=56	=56	=56	=56	=56
8C/L	4cc/ 4e/	.	.	4c\	łas-	.	.	.	.
8C/	.	.	.	.	.	.	.	.	.
8C/	8b-/L 8g/	.	.	16Bn\LL	-ka-	.	.	.	.
.	.	.	.	16c\JJ	.	.	.	.	.
8C/J	8a/J 8f/	.	.	16B\LL	-wie	.	.	.	.
.	.	.	.	16A\JJ	.	.	.	.	.
!LO:LB:g=original	!	!	!	!	!	!	!	!	!
=57	=57	=57	=57	=57	=57	=57	=57	=57	=57
8C/L	8a/L 8f/	.	.	32B-\LLL	cze-	0r	.	0r	.
.	.	.	.	32A\	.	.	.	.	.
.	.	.	.	32G\	.	.	.	.	.
.	.	.	.	32A\JJJ	.	.	.	.	.
8C/	8g/ 8e/	.	.	8G\	-kasz	.	.	.	.
8C/	8f/ 8d/	.	.	4r	.	.	.	.	.
8C/J	8e/J 8c/	.	.	.	.	.	.	.	.
=58	=58	=58	=58	=58	=58	=58	=58	=58	=58
8C/L	4a/ 4f/	0r	0r	4A\	łas-	.	.	.	.
8C/	.	.	.	.	.	.	.	.	.
8C/	8g/L 8e/	.	.	16G\LL	-ka-	.	.	.	.
.	.	.	.	16A\JJ	.	.	.	.	.
8C/J	8f/J 8d/	.	.	16G\LL	-wie	.	.	.	.
.	.	.	.	16F\JJ	.	.	.	.	.
!	!	!	!	!LO:LB:g=original	!	!	!	!	!
=59	=59	=59	=59	=59	=59	=59	=59	=59	=59
8C/L	8f/L 8d/	.	.	32G\LLL	cze-	.	.	.	.
.	.	.	.	32F\	.	.	.	.	.
.	.	.	.	32E\	.	.	.	.	.
.	.	.	.	32F\JJJ	.	.	.	.	.
8C/	8e/J 8c/	.	.	8E\	-kasz	.	.	.	.
8C/	4r	.	.	4r	.	.	.	.	.
8C/J	.	.	.	.	.	.	.	.	.
*Xtremolo	*	*	*	*	*	*	*	*	*
=60	=60	=60	=60	=60	=60	=60	=60	=60	=60
4F\	4a/ 4f/	.	.	8A\	my	.	.	.	.
.	.	.	.	16A\	sie	.	.	.	.
.	.	.	.	16d\	nie	.	.	.	.
4G\	4bn/ 4d/	.	.	16c\LL	po-	.	.	.	.
.	.	.	.	16B-\JJ	.	.	.	.	.
.	.	.	.	16A\LL	-pra-	.	.	.	.
.	.	.	.	16B-\JJ	-wu-	.	.	.	.
=61	=61	=61	=61	=61	=61	=61	=61	=61	=61
4C/	8cc/L 8e/	.	.	8c\	-ie-	1r	.	1r	.
.	8g/ 8e/	.	.	8G\	-my	.	.	.	.
4r	8f/ 8d/	.	.	4r	.	.	.	.	.
.	8e/J 8c/	.	.	.	.	.	.	.	.
=62	=62	=62	=62	=62	=62	=62	=62	=62	=62
*	*	*	*	*	*ij	*	*	*	*
4F\	4a/ 4f/	0r	0r	8A\	my	.	.	.	.
.	.	.	.	16A\	sie	.	.	.	.
.	.	.	.	16d\	nie	.	.	.	.
4G\	4bn/ 4d/	.	.	16c\LL	po-	.	.	.	.
.	.	.	.	16B-\JJ	.	.	.	.	.
.	.	.	.	16A\	-pra-	.	.	.	.
.	.	.	.	16B-\	-wu-	.	.	.	.
=63	=63	=63	=63	=63	=63	=63	=63	=63	=63
!LO:TX:t=P:problem=mixed beam	!LO:TX:t=P:problem=mixed beam	!	!	!	!	!	!	!	!
8c\L	8cc\L	.	.	8c\	-ie-	2r	.	2r	.
8C/	8c/	.	.	8C/	-my	.	.	.	.
*	*	*	*	*	*Xij	*	*	*	*
8C/J	8c/J	.	.	4r	.	.	.	.	.
8r	8r	.	.	.	.	.	.	.	.
=64	=64	=64	=64	=64!|:	=64	=64!|:	=64	=64	=64
!LO:TX:t=P:problem=mixed beam	!	!	!	!	!	!	!	!	!
16C/LL	4.gg\ 4.ee\	.	.	0r	.	4.e\	Je-	4.gg\	Je-
16c\	.	.	.	.	.	.	.	.	.
16c\	.	.	.	.	.	.	.	.	.
16c\JJ	.	.	.	.	.	.	.	.	.
*tremolo	*	*	*	*	*	*	*	*	*
16c\LL	.	.	.	.	.	.	.	.	.
16c\	.	.	.	.	.	.	.	.	.
16c\	8ff\ 8dd\	.	.	.	.	8d\	-ze-	8ff\	-ze-
16c\JJ	.	.	.	.	.	.	.	.	.
=65	=65	=65	=65	=65	=65	=65	=65	=65	=65
16c\LL	4ee\ 4cc\	.	.	.	.	4c\	-li	4ee\	-li
16c\	.	.	.	.	.	.	.	.	.
16c\	.	.	.	.	.	.	.	.	.
16c\JJ	.	.	.	.	.	.	.	.	.
16c\LL	8dd\L 8b-X\	.	.	.	.	8B-X\	sie	8dd\	sie
16c\	.	.	.	.	.	.	.	.	.
16c\	8cc\J 8a\	.	.	.	.	8A\	zas	8cc\	zas
16c\JJ	.	.	.	.	.	.	.	.	.
=66	=66	=66	=66	=66	=66	=66	=66	=66	=66
16c\LL	8b-\L 8g\	0r	0r	.	.	8G/	spra-	8b-\	spra-
16c\	.	.	.	.	.	.	.	.	.
16c\	8b-\ 8g\	.	.	.	.	8G/	-wie-	8b-\	-wie-
16c\	.	.	.	.	.	.	.	.	.
16c\	8b-\ 8g\	.	.	.	.	8G/	-dli-	8b-\	-dli-
16c\	.	.	.	.	.	.	.	.	.
16c\	8b-\J 8g\	.	.	.	.	8G/	-wie	8b-\	-wie
16c\JJ	.	.	.	.	.	.	.	.	.
=67	=67	=67	=67	=67	=67	=67	=67	=67	=67
16c\LL	4b-\ 4g\	.	.	.	.	4G/	mscisz	4b-\	mszcisz
16c\	.	.	.	.	.	.	.	.	.
16c\	.	.	.	.	.	.	.	.	.
16c\	.	.	.	.	.	.	.	.	.
16c\	4r	.	.	.	.	4r	.	4r	.
16c\	.	.	.	.	.	.	.	.	.
16c\	.	.	.	.	.	.	.	.	.
16c\JJ	.	.	.	.	.	.	.	.	.
!LO:LB:g=original	!	!	!	!	!	!	!	!LO:LB:g=original	!
=68	=68	=68	=68	=68	=68	=68	=68	=68	=68
*	*	*	*	*	*	*	*ij	*	*ij
16c\LL	8ee\L 8b-\ 8g\	.	.	8c\	Spra-	8B-\	spra-	8ee\	spra-
16c\	.	.	.	.	.	.	.	.	.
16c\	8ee\ 8b-\ 8g\	.	.	8c\	-wie-	8B-\	-wie-	8ee\	-wie-
16c\	.	.	.	.	.	.	.	.	.
!	!	!	!	!LO:LB:g=original	!	!	!	!	!
16c\	8ee\ 8b-\ 8g\	.	.	8c\	-dli-	8B-\	-dli-	8ee\	-dli-
16c\	.	.	.	.	.	.	.	.	.
16c\	8ee\J 8b-\ 8g\	.	.	8c\	-wie	8B-\	-wie	8ee\	-wie
16c\JJ	.	.	.	.	.	.	.	.	.
!	!	!	!	!	!	!LO:LB:g=original	!	!	!
=69	=69	=69	=69	=69	=69	=69	=69	=69	=69
16c\LL	4ee\ 4b-\ 4g\	.	.	4c\	mscis	4B-\	mscisz	4ee\	mszcisz
*	*	*	*	*	*	*	*Xij	*	*Xij
16c\	.	.	.	.	.	.	.	.	.
16c\	.	.	.	.	.	.	.	.	.
16c\	.	.	.	.	.	.	.	.	.
16c\	4r	.	.	4r	.	4r	.	4r	.
16c\	.	.	.	.	.	.	.	.	.
16c\	.	.	.	.	.	.	.	.	.
16c\JJ	.	.	.	.	.	.	.	.	.
*Xtremolo	*	*	*	*	*	*	*	*	*
=70	=70	=70	=70	=70	=70	=70	=70	=70	=70
4c\	4gg\ 4ee\	0r	0r	0r	.	4e\	wy-	4gg\	wy-
4r	4ee\ 4cc\	.	.	.	.	4c\	-trwac	4ee\	-trwac
=71	=71	=71	=71	=71	=71	=71	=71	=71	=71
2r	4cc\ 4a\	.	.	.	.	4A\	nie	4cc\	nie
.	4b-X\ 4g\	.	.	.	.	4G\	mo-	4b-X\	mo-
=72	=72	=72	=72	=72	=72	=72	=72	=72	=72
*	*	*	*	*	*	*	*	*2\right	*
!	!	!	!	!	!	!	!	!	!
8r	2b-\ 2g\	.	.	.	.	2G/	-ze-	2b-\	-ze-
8C\L	.	.	.	.	.	.	.	.	.
8D\	.	.	.	.	.	.	.	.	.
8E\J	.	.	.	.	.	.	.	.	.
=73	=73	=73	=73	=73	=73	=73	=73	=73	=73
8F\L	4a/ 4f/	.	.	.	.	4F/	-my	4a\	-my
8C\J	.	.	.	.	.	.	.	.	.
4FF/	4r	.	.	.	.	4r	.	4r	.
=74	=74	=74	=74	=74	=74	=74	=74	=74	=74
!LO:TX:t=P:problem=mixed beam	!LO:TX:t=P:problem=mixed beam	!	!	!	!	!	!	!	!
8FF/L	8f/L	0r	0r	8F\	wy-	8A\	wy-	8f/	wy-
8F\	8f/	.	.	8F\	-trwac	8A\	-trwac	8f/	-trwać
!	!	!	!	!	!	!	!	!LO:LB:g=original	!
8A\	8ee-X\ 8cc\	.	.	8A\	nie	8c\	nie	8ee-X\	nie
8F\J	8ee-\J 8cc\	.	.	8F\	mo-	8c\	mo-	8ee-\	mo-
=75	=75	=75	=75	=75	=75	=75	=75	=75	=75
8B-\L	8ee\L 8cc\	.	.	8B-\	-ze-	8c\	-ze-	8ee\	-że-
8F\	8dd\J 8b-\	.	.	8BB-/	-my	8B-\	-my	8dd\	-my
8D\	4r	.	.	4r	.	4r	.	4r	.
8BB-\J	.	.	.	.	.	.	.	.	.
=76	=76	=76	=76	=76	=76	=76	=76	=76	=76
*	*	*	*	*	*ij	*	*ij	*	*ij
!LO:TX:t=P:problem=mixed beam	!LO:TX:t=P:problem=mixed beam	!	!	!	!	!	!	!	!
8GG/L	8g/L	.	.	8G\	wy-	8Bn\	wy-	8g\	wy-
8G\	8g/	.	.	8G\	-trwac	8B\	-trwac	8g\	-trwać
8Bn\	8ff\ 8dd\	.	.	8Bn\	nie	8d\	nie	8ff\	nie
8G\J	8ff\J 8dd\	.	.	8G\	mo-	8d\	mo-	8ff\	mo-
=77	=77	=77	=77	=77	=77	=77	=77	=77	=77
8c\L	8ff\L 8dd\	.	.	8c\	-ze-	8d\	-ze-	8ff\	-że-
8G\	8een\J 8cc\	.	.	8C/	-my	8c\	-my	8een\	-my
*	*	*	*	*	*Xij	*	*Xij	*	*Xij
8E\	4r	.	.	4r	.	4r	.	4r	.
8C\J	.	.	.	.	.	.	.	.	.
!LO:LB:g=original	!	!	!	!	!	!	!	!	!
=78!|:	=78!|:	=78	=78	=78	=78	=78	=78	=78	=78
*	*2\right	*	*	*2\right	*	*	*	*	*
!	!	!	!	!	!	!	!	!	!
2B-X\ 2C\	2gg\	0r	0r	2B-\	Wy-	2c\	wy-	2gg\	wy-
!	!	!	!	!	!	!LO:LB:g=original	!	!	!
=79	=79	=79	=79	=79	=79	=79	=79	=79	=79
2A\ 2C\	2ff\	.	.	2A\	-trwac	2c\	-trwac	2ff\	-trwać
!	!	!	!	!	!	!	!	!LO:LB:g=original	!
=80	=80	=80	=80	=80	=80	=80	=80	=80	=80
!LO:TX:t=P:problem=mixed beam	!	!	!	!	!	!	!	!	!
.	8qqee/	.	.	.	.	.	.	8qqee/	.
8B-\L	8dd\L	.	.	8G\	nie	8B-\	nie	8dd\	nie
8G\	16cc\L	.	.	16A\LL	mo-	16A\LL	mo-	16cc\LL	mo-
.	16b-\JJ	.	.	16B-\JJ	.	16G\JJ	.	16b-\JJ	.
!	!	!	!	!LO:TX:t=P:problem=mixed beam	!	!	!	!	!
8c\	8a/L	.	.	8c\L	-rze-	8F/L	-ze-	8a\L	-że-
8C/J	8g/J	.	.	8C/J	.	8E/J	.	8g\J	.
!	!	!	!	!LO:LB:g=original	!	!	!	!	!
=81	=81	=81	=81	=81	=81	=81	=81	=81	=81
4F\	4f/	.	.	8F\	-my	8F/	-my	4f/	-my
.	.	.	.	8r	.	8r	.	.	.
4r	4r	.	.	4r	.	4r	.	4r	.
=82:|!	=82:|!	=82	=82	=82	=82	=82	=82	=82	=82
*	*	*	*	*	*	*	*	*	*ij
!	!LO:TX:t=P:problem=cztery takty zapisane repetycją	!	!	!	!	!	!	!	!
2B-X\yy 2C\yy	2gg\yy	0r	0r	2B-\	wy-	2c\	wy-	2gg\	wy-
=83	=83	=83	=83	=83	=83	=83	=83	=83	=83
2A\yy 2C\yy	2ff\yy	.	.	2A\	-trwac	2c\	-trwac	2ff\	-trwać
=84	=84	=84	=84	=84	=84	=84	=84	=84	=84
!LO:TX:t=P:problem=mixed beam	!	!	!	!	!	!	!	!	!
.	8qqee/yy	.	.	.	.	.	.	8qqee/	.
8B-\Lyy	8dd\Lyy	.	.	8G\	nie	8B-\	nie	8dd\	nie
8G\yy	16cc\Lyy	.	.	16A\LL	mo-	16A\LL	mo-	16cc\LL	mo-
.	16b-\JJyy	.	.	16B-\JJ	.	16G\JJ	.	16b-\JJ	.
!	!	!	!	!LO:TX:t=P:problem=mixed beam	!	!	!	!	!
8c\yy	8a/Lyy	.	.	8c\L	-rze-	8F/L	-ze-	8a\L	-że-
8C/Jyy	8g/Jyy	.	.	8C/J	.	8E/J	.	8g\J	.
=85	=85	=85	=85	=85	=85	=85	=85	=85	=85
4F\yy	4f/yy	.	.	8F\	-my	8F/	-my	4f/	-my
*	*	*	*	*	*	*	*	*	*Xij
.	.	.	.	8r	.	8r	.	.	.
4ryy	4ryy	.	.	4r	.	4r	.	4r	.
=86	=86	=86	=86	=86:|!	=86	=86:|!	=86	=86	=86
!LO:TX:t=P:problem=mixed beam	!	!	!	!LO:TX:t=P:problem=takty 86-107 zapisane repetycją	!	!LO:TX:t=P:problem=takty 86-107 zapisane repetycją	!	!	!
16C/LL	4.gg\ 4.een\	0r	0r	0ryy	.	4.e\yy	Je-	4.gg\	Je-
16c\	.	.	.	.	.	.	.	.	.
16c\	.	.	.	.	.	.	.	.	.
16c\JJ	.	.	.	.	.	.	.	.	.
*tremolo	*	*	*	*	*	*	*	*	*
16c\LL	.	.	.	.	.	.	.	.	.
16c\	.	.	.	.	.	.	.	.	.
16c\	8ff\ 8dd\	.	.	.	.	8d\yy	-ze-	8ff\	-ze-
16c\JJ	.	.	.	.	.	.	.	.	.
!	!	!	!	!	!	!	!	!LO:LB:g=original	!
=87	=87	=87	=87	=87	=87	=87	=87	=87	=87
16c\LL	4ee\ 4cc\	.	.	.	.	4c\yy	-li	4ee\	-li
16c\	.	.	.	.	.	.	.	.	.
16c\	.	.	.	.	.	.	.	.	.
16c\	.	.	.	.	.	.	.	.	.
16c\	8dd\L 8b-\	.	.	.	.	8B-X\yy	sie	8dd\	sie
16c\	.	.	.	.	.	.	.	.	.
16c\	8cc\J 8a\	.	.	.	.	8A\yy	zas	8cc\	zas
16c\JJ	.	.	.	.	.	.	.	.	.
=88	=88	=88	=88	=88	=88	=88	=88	=88	=88
16c\LL	8b-\L 8g\	.	.	.	.	8G/yy	spra-	8b-\	spra-
16c\	.	.	.	.	.	.	.	.	.
16c\	8b-\ 8g\	.	.	.	.	8G/yy	-wie-	8b-\	-wie-
16c\	.	.	.	.	.	.	.	.	.
16c\	8b-\ 8g\	.	.	.	.	8G/yy	-dli-	8b-\	-dli-
16c\	.	.	.	.	.	.	.	.	.
16c\	8b-\J 8g\	.	.	.	.	8G/yy	-wie	8b-\	-wie
16c\JJ	.	.	.	.	.	.	.	.	.
=89	=89	=89	=89	=89	=89	=89	=89	=89	=89
16c\LL	8b-\ 8g\	.	.	.	.	4G/yy	mscisz	8b-\	mszcisz
16c\	.	.	.	.	.	.	.	.	.
16c\	8r	.	.	.	.	.	.	8r	.
16c\	.	.	.	.	.	.	.	.	.
16c\	4r	.	.	.	.	4ryy	.	4r	.
16c\	.	.	.	.	.	.	.	.	.
16c\	.	.	.	.	.	.	.	.	.
16c\JJ	.	.	.	.	.	.	.	.	.
=90	=90	=90	=90	=90	=90	=90	=90	=90	=90
*	*	*	*	*	*	*	*ij	*	*ij
16c\LL	8een\L 8b-\ 8g\	0r	0r	8c\yy	Spra-	8B-\yy	spra-	8een\	spra-
16c\	.	.	.	.	.	.	.	.	.
16c\	8ee\ 8b-\ 8g\	.	.	8c\yy	-wie-	8B-\yy	-wie-	8ee\	-wie-
16c\	.	.	.	.	.	.	.	.	.
16c\	8ee\ 8b-\ 8g\	.	.	8c\yy	-dli-	8B-\yy	-dli-	8ee\	-dli-
16c\	.	.	.	.	.	.	.	.	.
16c\	8ee\J 8b-\ 8g\	.	.	8c\yy	-wie	8B-\yy	-wie	8ee\	-wie
16c\JJ	.	.	.	.	.	.	.	.	.
=91	=91	=91	=91	=91	=91	=91	=91	=91	=91
16c\LL	4ee\ 4b-\ 4g\	.	.	4c\yy	mscis	4B-\yy	mscisz	4ee\	mszcisz
*	*	*	*	*	*	*	*Xij	*	*Xij
16c\	.	.	.	.	.	.	.	.	.
16c\	.	.	.	.	.	.	.	.	.
16c\	.	.	.	.	.	.	.	.	.
16c\	4r	.	.	4ryy	.	4ryy	.	4r	.
16c\	.	.	.	.	.	.	.	.	.
16c\	.	.	.	.	.	.	.	.	.
16c\JJ	.	.	.	.	.	.	.	.	.
*Xtremolo	*	*	*	*	*	*	*	*	*
!LO:LB:g=original	!	!	!	!	!	!	!	!LO:PB:g=original	!
=92	=92	=92	=92	=92	=92	=92	=92	=92	=92
4c\	4gg\ 4ee\	.	.	0ryy	.	4e\yy	wy-	4gg\	wy-
4r	4ee\ 4cc\	.	.	.	.	4c\yy	-trwac	4ee\	-trwac
=93	=93	=93	=93	=93	=93	=93	=93	=93	=93
2r	4cc\ 4a\	.	.	.	.	4A\yy	nie	4cc\	nie
.	4b-\ 4g\	.	.	.	.	4G\yy	mo-	4b-\	mo-
=94	=94	=94	=94	=94	=94	=94	=94	=94	=94
8r	2b-\ 2g\	0r	0r	.	.	2G/yy	-ze-	2b-\	-że-
8C\L	.	.	.	.	.	.	.	.	.
8D\	.	.	.	.	.	.	.	.	.
8E\J	.	.	.	.	.	.	.	.	.
=95	=95	=95	=95	=95	=95	=95	=95	=95	=95
8F\L	4a/ 4f/	.	.	.	.	4F/yy	-my	4a\	-my
8C\J	.	.	.	.	.	.	.	.	.
4FF/	4r	.	.	.	.	4ryy	.	4r	.
=96	=96	=96	=96	=96	=96	=96	=96	=96	=96
*	*	*	*	*	*	*	*	*	*ij
!LO:TX:t=P:problem=mixed beam	!LO:TX:t=P:problem=mixed beam	!	!	!	!	!	!	!	!
8FF/L	8f/L	.	.	8F\yy	wy-	8A\yy	wy-	8f\	wy-
8F\	8f/	.	.	8F\yy	-trwac	8A\yy	-trwac	8f\	-trwać
8A\	8ee-X\ 8cc\	.	.	8A\yy	nie	8c\yy	nie	8ee-X\	nie
8F\J	8ee-\J 8cc\	.	.	8F\yy	mo-	8c\yy	mo-	8ee-\	mo-
=97	=97	=97	=97	=97	=97	=97	=97	=97	=97
8B-\L	8ee\L 8cc\	.	.	8B-\yy	-ze-	8c\yy	-ze-	8ee\	-że-
8F\	8dd\J 8b-\	.	.	8BB-/yy	-my	8B-\yy	-my	8dd\	-my
8D\	4r	.	.	4ryy	.	4ryy	.	4r	.
8BB-\J	.	.	.	.	.	.	.	.	.
!	!	!	!	!	!	!	!	!LO:LB:g=original	!
=98	=98	=98	=98	=98	=98	=98	=98	=98	=98
!LO:TX:t=P:problem=mixed beam	!LO:TX:t=P:problem=mixed beam	!	!	!	!	!	!	!	!
8GG/L	8g/L	0r	0r	8G\yy	/wy-	8Bn\yy	/wy-	8g\	wy-
8G/	8g/	.	.	8G\yy	-trwac	8B\yy	-trwac	8g\	-trwać
8Bn\	8ff\ 8dd\	.	.	8Bn\yy	nie	8d\yy	nie	8ff\	nie
8G\J	8ff\J 8dd\	.	.	8G\yy	mo-	8d\yy	mo-	8ff\	mo-
=99	=99	=99	=99	=99	=99	=99	=99	=99	=99
8c\L	8ff\L 8dd\	.	.	8c\yy	-ze-	8d\yy	-ze-	8ff\	-że-
8G\	8een\J 8cc\	.	.	8C/yy	-my/	8c\yy	-my	8een\	-my
*	*	*	*	*	*	*	*Xij	*	*Xij
8E\	4r	.	.	4ryy	.	4ryy	.	4r	.
8C\J	.	.	.	.	.	.	.	.	.
=100	=100	=100	=100	=100	=100	=100	=100	=100	=100
!	!	!	!	!	!	!	!	!	!
2B-\ 2C\	2gg\	.	.	2B-\yy	Wy-	2c\yy	wy-	2gg\	wy-
=101	=101	=101	=101	=101	=101	=101	=101	=101	=101
2A\ 2C\	2ff\	.	.	2A\yy	-trwac	2c\yy	-trwac	2ff\	-trwac
=102	=102	=102	=102	=102	=102	=102	=102	=102	=102
!LO:TX:t=P:problem=mixed beam	!	!	!	!	!	!	!	!	!
.	8qqee/	.	.	.	.	.	.	8qqee/	.
8B-\L	8dd\L	0r	0r	8G\yy	nie	8B-\yy	nie	8dd\	nie
8G\	16cc\L	.	.	16A\LLyy	mo-	16A\LLyy	mo-	16cc\LL	mo-
.	16b-\JJ	.	.	16B-/JJyy	.	16G\JJyy	.	16b-\JJ	.
!	!	!	!	!LO:TX:t=P:problem=mixed beam	!	!	!	!	!
8c\	8a/L	.	.	8c\Lyy	-rze-	8F/Lyy	-ze-	8a\L	-ze-
8C/J	8g/J	.	.	8C\Jyy	.	8E/Jyy	.	8g\J	.
!LO:LB:g=original	!	!	!	!	!	!	!	!	!
=103	=103	=103	=103	=103	=103	=103	=103	=103	=103
!LO:TX:t=P:problem=mixed beam	!	!	!	!	!	!	!	!	!
16F\LL	4f/	.	.	8F\yy	-my	8F/yy	-my	4f/	-my
16FF/	.	.	.	.	.	.	.	.	.
16AA/	.	.	.	8ryy	.	8ryy	.	.	.
16C/JJ	.	.	.	.	.	.	.	.	.
4F\	4r	.	.	4ryy	.	4ryy	.	4r	.
!	!	!	!	!	!	!	!	!LO:LB:g=original	!
=104	=104	=104	=104	=104	=104	=104	=104	=104	=104
*	*	*	*	*	*	*	*	*	*ij
2B-\ 2C\	2gg\	.	.	2B-\yy	wy-	2c\yy	wy-	2gg\	wy-
=105	=105	=105	=105	=105	=105	=105	=105	=105	=105
2A\ 2C\	2ff\	.	.	2A\yy	-trwac	2c\yy	-trwac	2ff\	-trwac
=106	=106	=106	=106	=106	=106	=106	=106	=106	=106
!LO:TX:t=P:problem=mixed beam	!	!	!	!	!	!	!	!	!
.	8qqee/	.	.	.	.	.	.	8qqee/	.
8B-\L	8dd\L	0r	0r	8G\yy	nie	8B-\yy	nie	8dd\	nie
8G\	16cc\L	.	.	16A\LLyy	mo-	16A\LLyy	mo-	16cc\LL	mo-
.	16b-\JJ	.	.	16B-\JJyy	.	16G\JJyy	.	16b-\JJ	.
!	!	!	!	!LO:TX:t=P:problem=mixed beam	!	!	!	!	!
8c\	8a/L	.	.	8c\Lyy	-rze-	8F/Lyy	-ze-	8a\L	-że-
8C/J	8g/J	.	.	8C/Jyy	.	8E/Jyy	.	8g\J	.
=107	=107	=107	=107	=107	=107	=107	=107	=107	=107
4F\	4f/	.	.	8F\yy	-my	8F/yy	-my	4f/	-my
*	*	*	*	*	*	*	*	*	*Xij
.	.	.	.	8ryy	.	8ryy	.	.	.
4r	8cc\L	.	.	4ryy	.	4ryy	.	8cc\L	wy-
.	8cc\J	.	.	.	.	.	.	8cc\J	-trwac
=108	=108	=108	=108	=108	=108	=108	=108	=108	=108
4r	8a/L	.	.	0r	.	1r	.	8a\L	nie
.	8f/	.	.	.	.	.	.	8f\J	.
8C/L	8e/	.	.	.	.	.	.	8e/L	mo-
8CC/J	8g/J	.	.	.	.	.	.	8g/J	-ze-
=109	=109	=109	=109	=109	=109	=109	=109	=109	=109
!	!	!	!	!	!	!	!	!LO:TX:t=P:problem=dwa takty zapisane repetycją	!
4FF/	4f/	.	.	.	.	.	.	4f/yy	-my
4r	8cc\L	.	.	.	.	.	.	8cc\Lyy	wy-
.	8cc\J	.	.	.	.	.	.	8cc\Jyy	-trwac
=110	=110	=110	=110	=110	=110	=110	=110	=110	=110
4r	8a/L	0r	0r	.	.	2r	.	8a\Lyy	nie
.	8f/	.	.	.	.	.	.	8f\Jyy	.
8C/L	8e/	.	.	.	.	.	.	8e/Lyy	mo-
8CC/J	8g/J	.	.	.	.	.	.	8g/Jyy	-ze-
=111!|:	=111!|:	=111	=111	=111	=111	=111	=111	=111	=111
4FF/	4f/	.	.	.	.	4r	.	4f/	-my
4r	8ff\L 8dd\	.	.	.	.	8d\	wy-	8ff\	wy-
.	8ff\J 8dd\	.	.	.	.	8d\	-trwac	8ff\	-trwac
!	!	!	!	!	!	!	!	!LO:LB:g=original	!
=112	=112	=112	=112	=112	=112	=112	=112	=112	=112
2r	8ee\L 8cc\	.	.	1r	.	8c\	nie	8ee\	nie
.	8dd\ 8b-\	.	.	.	.	8B-\	mo-	8dd\	mo-
.	8cc\ 8a\	.	.	.	.	8A\L	-ze-	(8cc\L	-że-
.	8b-\J 8g\	.	.	.	.	8G\J	.	8b-\J)	.
!	!	!	!	!	!	!LO:LB:g=original	!	!	!
=113:|!	=113:|!	=113	=113	=113	=113	=113	=113	=113	=113
!	!LO:TX:t=P:problem=dwa takty zapisane repetycją	!	!	!	!	!	!	!	!
4FF/yy	4f/yy	.	.	.	.	4F/	-my	4a\	-my
4ryy	8ff\yyL 8dd\yy	.	.	.	.	8B-\	wy-	8dd\	wy-
.	8ff\yyJ 8dd\yy	.	.	.	.	8B-\	-trwac	8dd\	-trwac
=114	=114	=114	=114	=114	=114	=114	=114	=114	=114
2ryy	8ee\yyL 8cc\yy	0r	0r	2r	.	8A\	nie	8cc\	nie
.	8dd\yy 8b-\yy	.	.	.	.	8G\	mo-	8b-\	mo-
.	8cc\yy 8a\yy	.	.	.	.	8F\L	-ze-	8a\L	-ze-
!	!LO:TX:b:i:t=Verte Cito	!	!	!	!	!	!	!	!
.	8b-\yyJ 8g\yy	.	.	.	.	8E\J	.	8g\J	.
!LO:PB:g=original	!	!	!	!	!	!	!	!	!
=115	=115	=115	=115	=115	=115	=115	=115	=115	=115
4F\	4fT/	.	.	4r	.	4F/	-my	4f/	-my
8A\L 8AA\	8ff\L 8cc\ 8a\	.	.	8A\	nie	8c\	nie	8ff\	nie
8A\J 8AA\	8ff\J 8cc\ 8a\	.	.	8A\	mo-	8c\	mo-	8ff\	mo-
=116	=116	=116	=116	=116	=116	=116	=116	=116	=116
4B-\ 4BB-\	4gg\ 4b-\ 4g\	.	.	(4B-\	-rze-	(4d\	-ze-	(4gg\	-że-
4c\ 4C\	4ee\ 4b-\ 4g\	.	.	4c\)	.	4B-\)	.	4ee\)	.
!	!	!	!	!	!	!	!	!LO:LB:g=original	!
=117	=117	=117	=117	=117	=117	=117	=117	=117	=117
4d\ 4D\	4ff\ 4cc\ 4a\	.	.	4d\	-my	4A\	-my	4ff\	-my
*	*	*	*	*	*ij	*	*	*	*
8A\L 8AA\	8ff\L 8cc\ 8a\	.	.	8A\	nie	8c\	nie	8ff\	nie
8A\J 8AA\	8ff\J 8cc\ 8a\	.	.	8A\	mo-	8c\	mo-	8ff\	mo-
=118	=118	=118	=118	=118	=118	=118	=118	=118	=118
4B-\ 4BB-\	4gg\ 4b-\ 4g\	1r	1r	(4B-\	-rze-	(4d\	-ze-	(4gg\	-ze-
4c\ 4C\	4ee\ 4b-\ 4g\	.	.	4c\)	.	4B-\)	.	4ee\)	.
=119	=119	=119	=119	=119	=119	=119	=119	=119	=119
4F\ 4FF\	4ff\ 4cc\ 4a\	.	.	4E\	-my	4A\	-my	4ff\	-my
*	*	*	*	*	*Xij	*	*	*	*
4r	4r	.	.	4r	.	4r	.	4r	.
=120	=120	=120	=120	=120	=120	=120	=120	=120	=120
2r	2r	2r	2r	2r	.	2r	.	2r	.
==	==	==	==	==	==	==	==	==	==
*-	*-	*-	*-	*-	*-	*-	*-	*-	*-
!!!system-decoration: [(s1,s2,s3)][(s4,s5)][(s6,s7)]
!!!ENC: Mateusz Solarz
!!!END: 2021-11-24
!!!ENC: Leszek Kubiak
!!!END: 2021-12-06
